src/img/icon/social/instagram.svg

<svg width="16" height="16" viewBox="0 0 16 16" fill="none" xmlns="http://www.w3.org/2000/svg">
<path d="M4.87194 0.495547C4.2454 0.510545 3.62583 0.630673 3.03908 0.850909C2.53717 1.04511 2.08159 1.34243 1.70177 1.72367C1.32195 2.10491 1.02634 2.56158 0.834034 3.06418C0.613869 3.65158 0.496487 4.27249 0.487042 4.89972C0.450664 5.70556 0.442274 5.96019 0.447871 8.01398C0.453467 10.0678 0.447868 10.3224 0.498237 11.1282C0.513236 11.7547 0.633373 12.3743 0.853624 12.961C1.0489 13.4622 1.34661 13.9172 1.72774 14.2969C2.10887 14.6765 2.56503 14.9725 3.06705 15.1659C3.6543 15.3832 4.27386 15.5005 4.89993 15.5128C5.70583 15.5492 5.96327 15.5576 8.01441 15.552C10.0655 15.5464 10.3258 15.552 11.1317 15.5016C11.7582 15.4866 12.3778 15.3665 12.9646 15.1463C13.4658 14.951 13.9209 14.6533 14.3006 14.2722C14.6802 13.8911 14.9762 13.435 15.1696 12.933C15.387 12.3458 15.5043 11.7263 15.5166 11.1003C15.5502 10.2916 15.5586 10.0342 15.5558 7.9832C15.553 5.93221 15.5418 5.67479 15.5054 4.86894C15.4904 4.24244 15.3703 3.62291 15.15 3.0362C14.9547 2.53495 14.657 2.07995 14.2759 1.70029C13.8948 1.32063 13.4386 1.02468 12.9366 0.83132C12.3488 0.612553 11.728 0.495233 11.1009 0.484361C10.295 0.447986 10.0376 0.439588 7.98643 0.445184C5.93529 0.45078 5.67785 0.445182 4.87194 0.495547ZM4.96149 14.153C4.48372 14.1488 4.0103 14.0617 3.56235 13.8955C3.23614 13.7713 2.93974 13.5797 2.69242 13.3334C2.4451 13.0871 2.25239 12.7914 2.12684 12.4657C1.95927 12.018 1.87028 11.5447 1.8638 11.0667C1.82462 10.2692 1.81623 10.0314 1.81343 8.01398C1.81063 5.99656 1.81343 5.75594 1.8526 4.96128C1.85701 4.48357 1.94412 4.01024 2.11005 3.56224C2.23433 3.23606 2.42587 2.93968 2.67223 2.69237C2.91859 2.44507 3.21424 2.25238 3.53996 2.12683C3.98811 1.96066 4.4612 1.87172 4.9391 1.86381C5.73661 1.82744 5.97446 1.81904 7.99202 1.81345C10.0096 1.80785 10.2474 1.81343 11.0449 1.85261C11.5227 1.85662 11.9962 1.94374 12.4441 2.11004C12.7704 2.23475 13.0669 2.4264 13.3146 2.67266C13.5624 2.91892 13.7558 3.21433 13.8824 3.53986C14.0486 3.98797 14.1375 4.46103 14.1454 4.93889C14.1818 5.73634 14.1902 5.97417 14.1958 7.99159C14.2014 10.009 14.1958 10.2468 14.1566 11.0443C14.1504 11.5218 14.0634 11.9949 13.8992 12.4433C13.7749 12.77 13.583 13.0667 13.3361 13.314C13.0892 13.5614 12.7929 13.7538 12.4665 13.8787C12.0183 14.0449 11.5452 14.1339 11.0673 14.1418C10.2726 14.1781 10.032 14.1865 8.01441 14.1921C5.99685 14.1977 5.75899 14.1921 4.96428 14.153M11.1205 3.95957C11.1205 4.13899 11.1737 4.31438 11.2735 4.46352C11.3732 4.61267 11.515 4.72887 11.6808 4.7974C11.8467 4.86593 12.0291 4.88372 12.205 4.84852C12.381 4.81331 12.5425 4.72669 12.6692 4.59962C12.7959 4.47255 12.882 4.31074 12.9167 4.1347C12.9514 3.95866 12.933 3.7763 12.864 3.6107C12.7949 3.44509 12.6783 3.30369 12.5288 3.20441C12.3793 3.10513 12.2038 3.05244 12.0243 3.05299C11.9053 3.05262 11.7874 3.07583 11.6774 3.12129C11.5674 3.16675 11.4674 3.23356 11.3834 3.31786C11.2994 3.40215 11.2329 3.50226 11.1877 3.6124C11.1426 3.72254 11.1198 3.84054 11.1205 3.95957ZM4.1248 8.00559C4.12591 8.77328 4.35469 9.52339 4.78221 10.1611C5.20973 10.7987 5.81678 11.2953 6.52656 11.5879C7.23635 11.8805 8.01698 11.9561 8.76972 11.805C9.52246 11.654 10.2135 11.2831 10.7554 10.7393C11.2973 10.1954 11.6657 9.50313 11.8141 8.7499C11.9624 7.99668 11.884 7.21638 11.5888 6.5077C11.2936 5.79903 10.7948 5.19383 10.1556 4.76864C9.51636 4.34346 8.76537 4.1174 7.99762 4.11906C7.48807 4.11979 6.98364 4.22091 6.51319 4.41666C6.04274 4.61241 5.61548 4.89894 5.25582 5.25988C4.89616 5.62081 4.61115 6.04908 4.41709 6.52021C4.22302 6.99133 4.1237 7.49607 4.1248 8.00559ZM5.48477 8.00559C5.48477 7.50752 5.63247 7.02063 5.90921 6.6065C6.18594 6.19237 6.57926 5.86961 7.03945 5.67901C7.49963 5.4884 8.00601 5.43854 8.49454 5.5357C8.98307 5.63287 9.43181 5.8727 9.78403 6.22489C10.1362 6.57708 10.3761 7.02579 10.4733 7.51429C10.5704 8.00278 10.5206 8.50914 10.33 8.96929C10.1393 9.42944 9.81654 9.82274 9.40239 10.0995C8.98823 10.3762 8.50132 10.5239 8.00322 10.5239C7.33528 10.5239 6.69471 10.2585 6.22241 9.78627C5.75011 9.31401 5.48477 8.67348 5.48477 8.00559Z" fill="#09A5F0"/>
</svg>

<svg xmlns="http://www.w3.org/2000/svg" width="16" height="16" fill="none" viewBox="0 0 16 16"><path fill="#09A5F0" d="M4.872.496A5.597 5.597 0 0 0 3.039.85 3.848 3.848 0 0 0 .834 3.064 5.464 5.464 0 0 0 .487 4.9c-.036.806-.045 1.06-.04 3.114.006 2.054 0 2.308.051 3.114.015.627.135 1.246.356 1.833a3.868 3.868 0 0 0 2.213 2.205 5.599 5.599 0 0 0 1.833.347c.806.036 1.063.045 3.114.039 2.052-.006 2.312 0 3.118-.05a5.598 5.598 0 0 0 1.833-.356 3.869 3.869 0 0 0 2.205-2.213 5.595 5.595 0 0 0 .347-1.833c.033-.808.042-1.066.039-3.117-.003-2.05-.014-2.308-.05-3.114a5.595 5.595 0 0 0-.356-1.833A3.868 3.868 0 0 0 12.937.831 5.538 5.538 0 0 0 11.1.484C10.295.448 10.038.44 7.986.445c-2.05.006-2.308 0-3.114.05Zm.09 13.657a4.126 4.126 0 0 1-1.4-.258 2.487 2.487 0 0 1-1.435-1.43 4.152 4.152 0 0 1-.263-1.398c-.04-.798-.048-1.036-.05-3.053-.003-2.017 0-2.258.039-3.053.004-.477.091-.95.257-1.399a2.487 2.487 0 0 1 1.43-1.435 4.226 4.226 0 0 1 1.4-.263c.797-.037 1.034-.045 3.052-.05 2.018-.006 2.255 0 3.053.039a4.12 4.12 0 0 1 1.4.257 2.501 2.501 0 0 1 1.437 1.43c.167.448.255.921.263 1.399.037.797.045 1.035.05 3.053.006 2.017 0 2.255-.038 3.052-.007.478-.094.95-.258 1.4a2.481 2.481 0 0 1-1.432 1.435 4.225 4.225 0 0 1-1.4.263c-.794.036-1.035.045-3.053.05-2.017.006-2.255 0-3.05-.039M11.12 3.96a.906.906 0 1 0 .557-.839.9.9 0 0 0-.556.839ZM4.125 8.006a3.881 3.881 0 1 0 7.762-.012 3.881 3.881 0 0 0-7.762.012Zm1.36 0a2.518 2.518 0 1 1 5.036 0 2.518 2.518 0 0 1-5.036 0Z"/></svg>
